assets/svgs/misc-grey/MiscGrey52.svg

<svg width="36" height="36" viewBox="0 0 36 36" fill="none" xmlns="http://www.w3.org/2000/svg">
<path fill-rule="evenodd" clip-rule="evenodd" d="M21.514 12.396L12.227 21.099C11.622 21.665 11.591 22.614 12.158 23.219C12.453 23.534 12.853 23.693 13.253 23.693C13.62 23.693 13.989 23.559 14.278 23.288L23.565 14.585C24.17 14.019 24.201 13.069 23.634 12.465C23.068 11.86 22.119 11.83 21.514 12.396Z" fill="#1A1919"/>
<path fill-rule="evenodd" clip-rule="evenodd" d="M33.108 3.22301C29.404 -0.434991 23.218 -0.380991 19.298 3.36201L14.151 8.47301C13.564 9.05701 13.561 10.006 14.144 10.594C14.729 11.183 15.677 11.185 16.266 10.602L21.391 5.51201C24.128 2.89801 28.438 2.82901 31 5.35701C32.176 6.51801 32.812 8.13401 32.791 9.90701C32.769 11.701 32.059 13.388 30.842 14.532L25.173 19.863C24.57 20.431 24.541 21.38 25.108 21.983C25.403 22.298 25.802 22.456 26.201 22.456C26.569 22.456 26.938 22.321 27.229 22.049L32.897 16.718C34.705 15.017 35.759 12.547 35.79 9.94201C35.821 7.38501 34.843 4.93601 33.108 3.22301Z" fill="#1A1919"/>
<path fill-rule="evenodd" clip-rule="evenodd" d="M19.698 25.097L14.572 30.187C11.834 32.798 7.52203 32.869 4.96203 30.341C3.78703 29.181 3.15103 27.565 3.17303 25.792C3.19403 23.997 3.90403 22.312 5.12103 21.166L10.79 15.835C11.393 15.268 11.422 14.318 10.855 13.715C10.287 13.11 9.33904 13.082 8.73403 13.649L3.06503 18.981C1.25803 20.682 0.204034 23.151 0.173034 25.756C0.143034 28.314 1.12003 30.764 2.85503 32.476C4.68303 34.28 7.11403 35.181 9.58103 35.181C12.111 35.181 14.679 34.231 16.665 32.336L21.812 27.226C22.399 26.642 22.403 25.692 21.819 25.104C21.235 24.516 20.286 24.514 19.698 25.097Z" fill="#1A1919"/>
</svg>

<svg xmlns="http://www.w3.org/2000/svg" fill="none" viewBox="0 0 36 36"><path fill="#1A1919" fill-rule="evenodd" d="M21.514 12.396l-9.287 8.703a1.499 1.499 0 102.051 2.189l9.287-8.703a1.499 1.499 0 10-2.051-2.189z" clip-rule="evenodd"/><path fill="#1A1919" fill-rule="evenodd" d="M33.108 3.223c-3.704-3.658-9.89-3.604-13.81.139l-5.147 5.111a1.501 1.501 0 002.115 2.129l5.125-5.09c2.737-2.614 7.047-2.683 9.609-.155 1.176 1.161 1.812 2.777 1.791 4.55-.022 1.794-.732 3.481-1.949 4.625l-5.669 5.331a1.5 1.5 0 002.056 2.186l5.668-5.331c1.808-1.701 2.862-4.171 2.893-6.776.031-2.557-.947-5.006-2.682-6.719zM19.698 25.097l-5.126 5.09c-2.738 2.611-7.05 2.682-9.61.154-1.175-1.16-1.811-2.776-1.789-4.549.021-1.795.731-3.48 1.948-4.626l5.669-5.331a1.5 1.5 0 00-2.056-2.186l-5.669 5.332C1.258 20.682.204 23.151.173 25.756c-.03 2.558.947 5.008 2.682 6.72 1.828 1.804 4.259 2.705 6.726 2.705 2.53 0 5.098-.95 7.084-2.845l5.147-5.11a1.501 1.501 0 00-2.114-2.129z" clip-rule="evenodd"/></svg>
